symbols-de/shields/motorway_6x2_z18.svg

<?xml version="1.0" encoding="UTF-8" standalone="no"?>
<svg
   xmlns:dc="http://purl.org/dc/elements/1.1/"
   xmlns:cc="http://creativecommons.org/ns#"
   xmlns:rdf="http://www.w3.org/1999/02/22-rdf-syntax-ns#"
   xmlns:svg="http://www.w3.org/2000/svg"
   xmlns="http://www.w3.org/2000/svg"
   xmlns:sodipodi="http://sodipodi.sourceforge.net/DTD/sodipodi-0.dtd"
   xmlns:inkscape="http://www.inkscape.org/namespaces/inkscape"
   width="100%"
   height="100%"
   viewBox="0 0 53.0 28.0"
   id="svg2"
   version="1.1"
   inkscape:version="0.91 r13725"
   sodipodi:docname="autobahn_6x2_z18.svg">
  <metadata
     id="metadata9">
    <rdf:RDF>
      <cc:Work
         rdf:about="">
        <dc:format>image/svg+xml</dc:format>
        <dc:type
           rdf:resource="http://purl.org/dc/dcmitype/StillImage" />
        <dc:title></dc:title>
      </cc:Work>
    </rdf:RDF>
  </metadata>
  <defs
     id="defs7" />
  <sodipodi:namedview
     pagecolor="#ffffff"
     bordercolor="#666666"
     borderopacity="1"
     objecttolerance="10"
     gridtolerance="10"
     guidetolerance="10"
     inkscape:pageopacity="0"
     inkscape:pageshadow="2"
     inkscape:window-width="1104"
     inkscape:window-height="734"
     id="namedview5"
     showgrid="false"
     inkscape:zoom="6.6603774"
     inkscape:cx="26.5"
     inkscape:cy="14"
     inkscape:window-x="151"
     inkscape:window-y="75"
     inkscape:window-maximized="0"
     inkscape:current-layer="svg2" />
  <path
     style="fill:#365eaf;fill-opacity:1;stroke:#0528a2;stroke-width:1;stroke-miterlimit:4;stroke-dasharray:none;stroke-opacity:1"
     d="m 26.5,0.50000337 c -0.372758,0 -0.558593,0.003877 -0.558593,0.0137581 L 1.3398437,2.5910381 C 0.78070298,2.6906444 0.49999999,2.841213 0.49999999,3.040426 c 0,7.306385 0,14.612772 0,21.919157 0,0.199212 0.28070268,0.349785 0.83984371,0.449387 l 24.6015633,2.077273 c 0,0.0099 0.18584,0.01376 0.558593,0.01376 0.372761,0 0.558594,-0.0039 0.558594,-0.01376 L 51.660157,25.408968 C 52.219298,25.309359 52.5,25.158792 52.5,24.95958 c 0,-7.306386 0,-14.612771 0,-21.9191562 0,-0.1992131 -0.280702,-0.349785 -0.839843,-0.449388 L 27.058594,0.51375933 c 0,-0.009978 -0.18584,-0.0137582 -0.558594,-0.0137582 z"
     id="path6"
     inkscape:connector-curvature="0"
     sodipodi:nodetypes="sccccccsccccccs" />
</svg>

<?xml version="1.0" encoding="UTF-8"?>
<svg xmlns="http://www.w3.org/2000/svg" xmlns:xlink="http://www.w3.org/1999/xlink" width="51pt" height="36pt" viewBox="0 0 51 36" version="1.1">
<g id="surface1">
<path style="fill-rule:nonzero;fill:rgb(21.176471%,36.862745%,68.627451%);fill-opacity:1;stroke-width:1;stroke-linecap:butt;stroke-linejoin:miter;stroke:rgb(1.960784%,15.686275%,63.529412%);stroke-opacity:1;stroke-miterlimit:4;" d="M 26.5 0.501302 C 26.126532 0.501302 25.939798 0.50434 25.939798 0.513455 L 1.339614 2.59158 C 0.779412 2.69184 0.499311 2.840712 0.499311 3.041233 C 0.499311 10.34809 0.499311 17.65191 0.499311 24.958767 C 0.499311 25.159288 0.779412 25.30816 1.339614 25.40842 L 25.939798 27.486545 C 25.939798 27.49566 26.126532 27.498698 26.5 27.498698 C 26.873468 27.498698 27.060202 27.49566 27.060202 27.486545 L 51.660386 25.40842 C 52.220588 25.30816 52.500689 25.159288 52.500689 24.958767 C 52.500689 17.65191 52.500689 10.34809 52.500689 3.041233 C 52.500689 2.840712 52.220588 2.69184 51.660386 2.59158 L 27.060202 0.513455 C 27.060202 0.50434 26.873468 0.501302 26.5 0.501302 Z M 26.5 0.501302 " transform="matrix(0.962264,0,0,1.285714,0,0)"/>
</g>
</svg>
